X:3180
T:Tuamgraney Castle 
T:Loch Gamhna
M: 4/4
L: 1/8
R: hornpipe
K: Ador
cB|A2AB AGEG|AGAB cBcd|(3efg fa gedc|B2G2 G2 cB|
A2AB AGEG|AGAB cBcd|(3efg fa gedB|c2A2 A2:|
(3efg|a2ab ageg|agab a2ge|dega gedc|B2G2 G2 (3efg|
|a2ab ageg|agab a2ge|dega gedB|c2 A2 A2 (3efg|
|a2ab ageg|agab a2ge|dega gedc|BcdB GcBc|
A2AB AGEG|AGAB cBcd|(3efg fa gedB|c2A2 A2||
% Waltzes, slow tunes
